X: 2095
T: Çelik Pazarı
C: (Anonim)
O: Turkey
F: http://compmusic.upf.edu/node/140
N: gerdaniye--turku--kapali_curcuna--celik_pazari--erzurum
N: makam= gerdaniye
N: form= turku
N: usul= kapali_curcuna = 10/8
M: 10/8
L: 1/16
K: C _2/4B ^3/4f  
Q: 1/4=240
%%MIDI tuningsystem comma53
z4 d2e4e4e4d2  | d2g2 f2g2 a2f2 g2e4d2  | \
w:   |   | 
d4 d4 c2d4e4d2  | 
w:   | 
d4 c2d2 B2c2 B2d6  | d2e2 c2d2 B2c2 B2d4B2  | \
w:   |   | 
c2B2 A2c2 B2B2 A2A6  | 
w:   | 
A2c2 B4 A2c2 d2B4A2  | A4 A6A4A2 A2A2  | \
w:   |   | 
z4 f2g4g2 f2g6  | g4 f2g2 a2f2 g2e4d2  | 
w:  Çe lik  pa *  za  |  rın *  da  *  u *  fa  | 
d8-d2f2 g2a4f2  | g4 f2g2 a2f2 g2e4d2  | \
w:  cık  taş  |  lar   *  Le  *  le  *  le   | 
d8-d2f2 g2a4f2  | g8-g2g2 f2g6  | 
w:  vay  taş  |  lar   SAZ  | 
z4 f2g4a4a6  | a4 g2a4f2 g2e4d2  | d8 c2d4e4d2  | \
w:  E le le  tut  |  muş  *  gi di *  yor   |  da *  daş  | 
d4 c2d2 B2c2 B2d6  | 
w:  lar   *  Le  *  le  *  le   | 
d2e2 c2d2 B2c2 B2d4B2  | c2B2 A2c2 B2B2 A2A6  | \
w:  da *  *  *  *  daş  |  lar  *  *  le  *  le  *  le   | 
A2c2 B4 A2c2 d2B4A2  | 
w:  da *  *  *  daş  | 
A6A2 d2c2 d2e6  | z4 d2e4e4e4d2  | d2g2 f2g2 a2f2 g2e4d2  | 
w:  lar   SAZ  |  E le le  tut  |  muş  *  *  gi *  di *  yor   | 
d8 c2d4e4d2  | d4 c2d2 B2c2 B2d6  | d2e2 c2d2 B2c2 B2d4B2  | 
w:  da *  daş  |  lar   *  Le  *  le  *  le   |  da *  *  *  *  daş  | 
c2B2 A2c2 B2B2 A2A6  | A2c2 B4 A2c2 d2B4A2  | \
w:  lar  *  *  le  *  le  *  le   |  da *  *  *  daş  | 
A4 z2g4g2 f2g6  | 
w:  lar   SAZ  | 
z4 f2g4g2 f2g6  | g4 f2g2 a2f2 g2e4d2  | \
w:  Ya ra la *  rım   |  a *  ğır  *  ge *  lir   | 
d8-d2f2 g2a4f2  | g4 f2g2 a2f2 g2e4d2  | 
w:  gar daş  |  lar   *  Le  *  le  *  le   | 
d8-d2f2 g2a4f2  | g8-g2g2 f2g6  | z4 f2g4a4a6  | \
w:  gar daş  |  lar   SAZ  |  Ey_ a ğa lar   | 
a4 g2a4f2 g2e4d2  | 
w:  ben  *  ka fa *  dan   | 
d8 c2d4e4d2  | d4 c2d2 B2c2 B2d6  | d2e2 c2d2 B2c2 B2d4B2  | 
w:  vu *  rul  |  dum   *  Le  *  le  *  le   |  vu *  *  *  *  rul  | 
c2B2 A2c2 B2B2 A2A6  | A2c2 B4 A2c2 d2B4A2  | \
w:  dum  *  *  le  *  le  *  le   |  vu *  *  *  rul  | 
A6A2 d2c2 d2e6  | 
w:  dum   SAZ  | 
z4 d2e4e4e4d2  | d2g2 f2g2 a2f2 g2e4d2  | \
w:  Vu rul dum  da   |  dil *  *  den  *  di *  le   | 
d8 c2d4e4d2  | d4 c2d2 B2c2 B2d6  | 
w:  du *  yul  |  dum   *  Le  *  le  *  le   | 
d2e2 c2d2 B2c2 B2d4B2  | c2B2 A2c2 B2B2 A2A6  | \
w:  du *  *  *  *  yul  |  dum  *  *  le  *  le  *  le   | 
A2c2 B4 A2c2 d2B4A2  | 
w:  du *  *  *  yul  | 
A8-A2A4A2 A2A2  | z4 d2e4e4e4d2  | d2g2 f2g2 a2f2 g2e4d2  | 
w:  dum    |   |   | 
d4 d4 c2d4e4d2  | d4 c2d2 B2c2 B2d6  | \
w:   |   | 
d2e2 c2d2 B2c2 B2d4B2  | 
w:   | 
c2B2 A2c2 B2B2 A2A6  | A2c2 B4 A2c2 d2B4A2  | \
w:   |   | 
A4 A6A4A2 A2A2  | 
w:   | 
z4 f2g4g2 f2g6  | g4 f2g2 a2f2 g2e4d2  | \
w:  Çe lik  pa *  za  |  rın *  da  *  u *  fa  | 
d8-d2f2 g2a4f2  | g4 f2g2 a2f2 g2e4d2  | 
w:  cık  taş  |  lar   *  Le  *  le  *  le   | 
d8-d2f2 g2a4f2  | g8-g2g2 f2g6  | z4 f2g4a4a6  | \
w:  vay  taş  |  lar   SAZ  |  E le le  tut  | 
a4 g2a4f2 g2e4d2  | 
w:  muş  *  gi di *  yor   | 
d8 c2d4e4d2  | d4 c2d2 B2c2 B2d6  | d2e2 c2d2 B2c2 B2d4B2  | 
w:  da *  daş  |  lar   *  Le  *  le  *  le   |  da *  *  *  *  daş  | 
c2B2 A2c2 B2B2 A2A6  | A2c2 B4 A2c2 d2B4A2  | \
w:  lar  *  *  le  *  le  *  le   |  da *  *  *  daş  | 
A6A2 d2c2 d2e6  | 
w:  lar   SAZ  | 
z4 d2e4e4e4d2  | d2g2 f2g2 a2f2 g2e4d2  | \
w:  E le le  tut  |  muş  *  *  gi *  di *  yor   | 
d8 c2d4e4d2  | d4 c2d2 B2c2 B2d6  | 
w:  da *  daş  |  lar   *  Le  *  le  *  le   | 
d2e2 c2d2 B2c2 B2d4B2  | c2B2 A2c2 B2B2 A2A6  | \
w:  da *  *  *  *  daş  |  lar  *  *  le  *  le  *  le   | 
A2c2 B4 A2c2 d2B4A2  | 
w:  da *  *  *  daş  | 
A4 z2g4g2 f2g6  | z4 f2g4g2 f2g6  | g4 f2g2 a2f2 g2e4d2  | \
w:  lar   SAZ  |  Ya ra la *  rım   |  a *  ğır  *  ge *  lir   | 
d8-d2f2 g2a4f2  | 
w:  gar daş  | 
g4 f2g2 a2f2 g2e4d2  | d8-d2f2 g2a4f2  | \
w:  lar   *  Le  *  le  *  le   |  gar daş  | 
g8-g2g2 f2g6  | z4 f2g4a4a6  | 
w:  lar   SAZ  |  Ey_ a ğa lar   | 
a4 g2a4f2 g2e4d2  | d8 c2d4e4d2  | d4 c2d2 B2c2 B2d6  | \
w:  ben  *  ka fa *  dan   |  vu *  rul  |  dum   *  Le  *  le  *  le   | 
d2e2 c2d2 B2c2 B2d4B2  | 
w:  vu *  *  *  *  rul  | 
c2B2 A2c2 B2B2 A2A6  | A2c2 B4 A2c2 d2B4A2  | \
w:  dum  *  *  le  *  le  *  le   |  vu *  *  *  rul  | 
A6A2 d2c2 d2e6  | 
w:  dum   SAZ  | 
z4 d2e4e4e4d2  | d2g2 f2g2 a2f2 g2e4d2  | \
w:  Vu rul dum  da   |  dil *  *  den  *  di *  le   | 
d8 c2d4e4d2  | d4 c2d2 B2c2 B2d6  | 
w:  du *  yul  |  dum   *  Le  *  le  *  le   | 
d2e2 c2d2 B2c2 B2d4B2  | c2B2 A2c2 B2B2 A2A6  | \
w:  du *  *  *  *  yul  |  dum  *  *  le  *  le  *  le   | 
A2c2 B4 A2c2 d2B4A2  | 
w:  du *  *  *  yul  | 
A8-A2A4A2 A2A2  | |


